X:1
T:Mouse In The Mug, The
R:jig
Z:hn-jig-389
M:6/8
L:1/8
K:G
~G3 EGD | ~G3 Bdg | ~e3 dBG | AGA BAB |
~G3 EGD | ~G3 Bdg | ~e3 dBG |1 AGF GBA :|2 AGF GBd |]
gab agf | e/f/gd edB | deg edB | ABG ABd |
gab agf | e/f/gd edB | deg edB | AGF GBd ||
gab agf | e/f/gd edB | deg edB | AGA BAB |
~G3 EGD | ~G3 Bdg | ~e3 dBG | AGF GBA |]
</abc>
